svgs/bolt_driver.svg

<svg xmlns="http://www.w3.org/2000/svg" width="192" height="192" viewBox="0 0 192 192"><defs><style>.cls-1{fill:none;stroke:#000;stroke-width:10px;stroke-linecap:round}</style></defs><circle cx="96" cy="170.9" r="5.1"/><path class="cls-1" d="M133 126.25v22.32m0-10.84h9.56m0 20.41c-5.93 0-9.44-4.57-9.56-9.57m-12.76-27.43v37"/><circle cx="96" cy="146.66" r="11.48" style="fill:none;stroke:#000;stroke-width:10px"/><path class="cls-1" d="M49.44 121.14v37m0-37h10.84m-10.84 19.14h13.39m-13.39 17.86h13.39m0 0c12.12 0 12.12-17.86 0-17.86"/><path class="cls-1" d="M60.28 140.28c12.12 0 12.12-19.14 0-19.14"/><path d="M71.63 80.94a5.83 5.83 0 0 0-5.82 5.83h0A3.18 3.18 0 0 1 62.58 90h-2.16a3.18 3.18 0 0 1-3.23-3.23v-34a6.07 6.07 0 0 1 .3-1.89l8.86-26.68a4.78 4.78 0 0 1 1.78-2.37A4.93 4.93 0 0 1 71 21h50a4.93 4.93 0 0 1 2.86.86 4.78 4.78 0 0 1 1.78 2.37l8.86 26.68a6.07 6.07 0 0 1 .3 1.89v34a3.18 3.18 0 0 1-3.22 3.2h-2.27a2.93 2.93 0 0 1-2.26-.93 3.28 3.28 0 0 1-.86-2.3h0a5.83 5.83 0 0 0-5.82-5.83Z" style="stroke-linejoin:round;stroke-linecap:round;fill:none;stroke:#000;stroke-width:10px"/><path style="stroke-miterlimit:10;fill:none;stroke:#000;stroke-width:10px" d="M58.67 47.37h74.66"/><path d="M77 70.46a6.1 6.1 0 0 0 6.22-6.19 6.33 6.33 0 0 0-1.8-4.55A5.88 5.88 0 0 0 77 57.85a6.37 6.37 0 0 0-6.42 6.39 5.85 5.85 0 0 0 1.87 4.44A6.29 6.29 0 0 0 77 70.46Zm38.08 0a6.29 6.29 0 0 0 4.54-1.8 5.88 5.88 0 0 0 1.88-4.39 6.38 6.38 0 0 0-6.4-6.42 5.9 5.9 0 0 0-4.44 1.86 6.37 6.37 0 0 0-1.78 4.53 6.13 6.13 0 0 0 6.2 6.22Z"/></svg>

<svg xmlns="http://www.w3.org/2000/svg" width="192" height="192" viewBox="0 0 192 192"><defs><style>.cls-1{fill:none;stroke:#000;stroke-width:10px;stroke-linecap:round}</style></defs><circle cx="96" cy="170.9" r="5.1"/><path class="cls-1" d="M133 126.25v22.32M133 137.73h9.56M142.56 158.14c-5.93 0-9.44-4.57-9.56-9.57M120.24 121.14v37"/><circle cx="96" cy="146.66" r="11.48" style="fill:none;stroke:#000;stroke-width:10px"/><path class="cls-1" d="M49.44 121.14v37M49.44 121.14h10.84M49.44 140.28h13.39M49.44 158.14h13.39M62.83 158.14c12.12 0 12.12-17.86 0-17.86"/><path class="cls-1" d="M60.28 140.28c12.12 0 12.12-19.14 0-19.14"/><path d="M71.63 80.94a5.83 5.83 0 0 0-5.82 5.83h0A3.18 3.18 0 0 1 62.58 90h-2.16a3.18 3.18 0 0 1-3.23-3.23v-34a6.07 6.07 0 0 1 .3-1.89l8.86-26.68a4.78 4.78 0 0 1 1.78-2.37A4.93 4.93 0 0 1 71 21h50a4.93 4.93 0 0 1 2.86.86 4.78 4.78 0 0 1 1.78 2.37l8.86 26.68a6.07 6.07 0 0 1 .3 1.89v34a3.18 3.18 0 0 1-3.22 3.2h-2.27a2.93 2.93 0 0 1-2.26-.93 3.28 3.28 0 0 1-.86-2.3h0a5.83 5.83 0 0 0-5.82-5.83Z" style="stroke-linejoin:round;stroke-linecap:round;fill:none;stroke:#000;stroke-width:10px"/><path style="stroke-miterlimit:10;fill:none;stroke:#000;stroke-width:10px" d="M58.67 47.37h74.66"/><path d="M77 70.46a6.1 6.1 0 0 0 6.22-6.19 6.33 6.33 0 0 0-1.8-4.55A5.88 5.88 0 0 0 77 57.85a6.37 6.37 0 0 0-6.42 6.39 5.85 5.85 0 0 0 1.87 4.44A6.29 6.29 0 0 0 77 70.46ZM115.08 70.46a6.29 6.29 0 0 0 4.54-1.8 5.88 5.88 0 0 0 1.88-4.39 6.38 6.38 0 0 0-6.4-6.42 5.9 5.9 0 0 0-4.44 1.86 6.37 6.37 0 0 0-1.78 4.53 6.13 6.13 0 0 0 6.2 6.22Z"/></svg>
